src/assets/index/reviews__before.svg

<svg width="90" height="85" viewBox="0 0 90 85" fill="none" xmlns="http://www.w3.org/2000/svg">
<g filter="url(#filter0_d)">
<path d="M27.5636 33.4096C30.4485 32.5395 32.6545 30.8862 34.1818 28.4498C35.8788 26.1874 36.7273 23.4029 36.7273 20.0964C36.7273 15.9197 35.4545 12.5261 32.9091 9.91566C30.3636 7.30522 27.2242 6 23.4909 6C19.4182 6 16.1091 7.30522 13.5636 9.91566C11.1879 12.7001 10 16.0937 10 20.0964C10 22.1847 10.1697 24.1861 10.5091 26.1004C11.0182 28.1888 11.9515 31.1472 13.3091 34.9759L24 71H36.2182L27.5636 33.4096ZM70.8364 33.4096C73.7212 32.5395 75.9273 30.8862 77.4545 28.4498C79.1515 26.1874 80 23.403 80 20.0964C80 15.9197 78.7273 12.5261 76.1818 9.91566C73.6364 7.30522 70.497 6 66.7636 6C62.6909 6 59.3818 7.30522 56.8364 9.91566C54.4606 12.7001 53.2727 16.0937 53.2727 20.0964C53.2727 22.1847 53.4424 24.1861 53.7818 26.1004C54.2909 28.1888 55.2242 31.1473 56.5818 34.9759L67.2727 71L79.4909 71L70.8364 33.4096Z" fill="#BA0C2F"/>
</g>
<defs>
<filter id="filter0_d" x="0" y="0" width="90" height="85" filterUnits="userSpaceOnUse" color-interpolation-filters="sRGB">
<feFlood flood-opacity="0" result="BackgroundImageFix"/>
<feColorMatrix in="SourceAlpha" type="matrix" values="0 0 0 0 0 0 0 0 0 0 0 0 0 0 0 0 0 0 127 0"/>
<feOffset dy="4"/>
<feGaussianBlur stdDeviation="5"/>
<feColorMatrix type="matrix" values="0 0 0 0 0 0 0 0 0 0 0 0 0 0 0 0 0 0 0.25 0"/>
<feBlend mode="normal" in2="BackgroundImageFix" result="effect1_dropShadow"/>
<feBlend mode="normal" in="SourceGraphic" in2="effect1_dropShadow" result="shape"/>
</filter>
</defs>
</svg>

<svg width="90" height="85" fill="none" xmlns="http://www.w3.org/2000/svg"><g filter="url(#filter0_d)"><path d="M27.564 33.41c2.884-.87 5.09-2.524 6.618-4.96 1.697-2.263 2.545-5.047 2.545-8.354 0-4.176-1.272-7.57-3.818-10.18C30.364 7.306 27.224 6 23.491 6c-4.073 0-7.382 1.305-9.927 3.916C11.188 12.7 10 16.094 10 20.096c0 2.089.17 4.09.51 6.004.508 2.089 1.441 5.047 2.8 8.876L24 71h12.218l-8.654-37.59zm43.272 0c2.885-.87 5.091-2.524 6.618-4.96C79.152 26.187 80 23.403 80 20.096c0-4.176-1.273-7.57-3.818-10.18C73.636 7.306 70.497 6 66.764 6c-4.073 0-7.382 1.305-9.928 3.916-2.375 2.784-3.563 6.178-3.563 10.18 0 2.089.17 4.09.509 6.004.509 2.089 1.442 5.047 2.8 8.876L67.272 71h12.219l-8.655-37.59z" fill="#BA0C2F"/></g><defs><filter id="filter0_d" x="0" y="0" width="90" height="85" filterUnits="userSpaceOnUse" color-interpolation-filters="sRGB"><feFlood flood-opacity="0" result="BackgroundImageFix"/><feColorMatrix in="SourceAlpha" values="0 0 0 0 0 0 0 0 0 0 0 0 0 0 0 0 0 0 127 0"/><feOffset dy="4"/><feGaussianBlur stdDeviation="5"/><feColorMatrix values="0 0 0 0 0 0 0 0 0 0 0 0 0 0 0 0 0 0 0.25 0"/><feBlend in2="BackgroundImageFix" result="effect1_dropShadow"/><feBlend in="SourceGraphic" in2="effect1_dropShadow" result="shape"/></filter></defs></svg>
